svgs/sharp-solid/high-definition.svg

<svg xmlns="http://www.w3.org/2000/svg" viewBox="0 0 576 512"><!--! Font Awesome Pro 6.6.0 by @fontawesome - https://fontawesome.com License - https://fontawesome.com/license (Commercial License) Copyright 2024 Fonticons, Inc. --><path d="M0 32l576 0 0 448L0 480 0 32zM304 160l0 24 0 144 0 24 24 0 56 0c53 0 96-43 96-96s-43-96-96-96l-56 0-24 0zm80 48c26.5 0 48 21.5 48 48s-21.5 48-48 48l-32 0 0-96 32 0zM160 184l0-24-48 0 0 24 0 72 0 72 0 24 48 0 0-24 0-48 64 0 0 48 0 24 48 0 0-24 0-72 0-72 0-24-48 0 0 24 0 48-64 0 0-48z"/></svg>

<svg xmlns="http://www.w3.org/2000/svg" viewBox="0 0 576 512"><!--! Font Awesome Pro 6.4.0 by @fontawesome - https://fontawesome.com License - https://fontawesome.com/license (Commercial License) Copyright 2023 Fonticons, Inc. --><path d="M0 32H576V480H0V32zM304 160v24V328v24h24 56c53 0 96-43 96-96s-43-96-96-96H328 304zm80 48c26.5 0 48 21.5 48 48s-21.5 48-48 48H352V208h32zM160 184V160H112v24 72 72 24h48V328 280h64v48 24h48V328 256 184 160H224v24 48H160V184z"/></svg>
